src/assets/icons/statsIcon.svg

<svg width="24" height="24" viewBox="0 0 24 24" fill="none" xmlns="http://www.w3.org/2000/svg">
<path d="M1 12C1 14.4477 1.13246 16.3463 1.46153 17.827C1.78807 19.2963 2.29478 20.2921 3.00136 20.9986C3.70794 21.7052 4.70365 22.2119 6.17298 22.5385C7.65366 22.8675 9.55232 23 12 23C14.4477 23 16.3463 22.8675 17.827 22.5385C19.2963 22.2119 20.2921 21.7052 20.9986 20.9986C21.7052 20.2921 22.2119 19.2963 22.5385 17.827C22.8675 16.3463 23 14.4477 23 12C23 9.55232 22.8675 7.65366 22.5385 6.17298C22.2119 4.70365 21.7052 3.70794 20.9986 3.00136C20.2921 2.29478 19.2963 1.78807 17.827 1.46153C16.3463 1.13246 14.4477 1 12 1C9.55232 1 7.65366 1.13246 6.17298 1.46153C4.70365 1.78807 3.70794 2.29478 3.00136 3.00136C2.29478 3.70794 1.78807 4.70365 1.46153 6.17298C1.13246 7.65366 1 9.55232 1 12Z" stroke="#212135" stroke-width="2" stroke-linecap="round" stroke-linejoin="round"/>
<path d="M12 7V17M17 11V17M7 13V17" stroke="#212135" stroke-width="2" stroke-linecap="round" stroke-linejoin="round"/>
</svg>

<svg width="24" height="24" fill="none" xmlns="http://www.w3.org/2000/svg"><path d="M1 12c0 2.448.132 4.346.462 5.827.326 1.47.833 2.465 1.54 3.172.706.706 1.702 1.213 3.171 1.54 1.48.328 3.38.461 5.827.461 2.448 0 4.346-.133 5.827-.462 1.47-.326 2.465-.833 3.172-1.54.706-.706 1.213-1.702 1.54-3.171.328-1.48.461-3.38.461-5.827 0-2.448-.133-4.346-.462-5.827-.326-1.47-.833-2.465-1.54-3.172-.706-.706-1.702-1.213-3.171-1.54C16.347 1.133 14.447 1 12 1c-2.448 0-4.346.132-5.827.462-1.47.326-2.465.833-3.172 1.54-.706.706-1.213 1.702-1.54 3.171C1.133 7.653 1 9.553 1 12ZM12 7v10m5-6v6M7 13v4" stroke="#212135" stroke-width="2" stroke-linecap="round" stroke-linejoin="round"/></svg>
